SVG-Logos/AI, ML, DS/AI/rewind-ai-icon.svg

<svg xmlns="http://www.w3.org/2000/svg" width="37" height="23" viewBox="0 0 37 23" fill="none">
<path fill-rule="evenodd" clip-rule="evenodd" d="M17.909 10.219L33.8481 0.683551C34.9819 0.00521125 36.3731 1.02602 36.0662 2.31118L35.5278 4.56607C34.4392 9.12455 34.4392 13.8752 35.5278 18.4338L36.0662 20.6887C36.3731 21.9739 34.9819 22.9946 33.8481 22.3163L17.909 12.7808C17.8165 12.7255 17.7329 12.6628 17.6581 12.5938C17.7301 14.5554 17.9955 16.5117 18.4545 18.4338L18.993 20.6887C19.2998 21.9739 17.9087 22.9946 16.7747 22.3163L0.835728 12.7808C-0.132741 12.2015 -0.132743 10.7984 0.835725 10.219L16.7747 0.683551C17.9087 0.00521125 19.2998 1.02602 18.993 2.31118L18.4545 4.56607C17.9955 6.48816 17.7301 8.44441 17.6581 10.406C17.7329 10.3371 17.8165 10.2743 17.909 10.219Z" fill="#0A0909" style="mix-blend-mode:overlay"/>
<path fill-rule="evenodd" clip-rule="evenodd" d="M17.909 10.219L33.8481 0.683551C34.9819 0.00521125 36.3731 1.02602 36.0662 2.31118L35.5278 4.56607C34.4392 9.12455 34.4392 13.8752 35.5278 18.4338L36.0662 20.6887C36.3731 21.9739 34.9819 22.9946 33.8481 22.3163L17.909 12.7808C17.8165 12.7255 17.7329 12.6628 17.6581 12.5938C17.7301 14.5554 17.9955 16.5117 18.4545 18.4338L18.993 20.6887C19.2998 21.9739 17.9087 22.9946 16.7747 22.3163L0.835728 12.7808C-0.132741 12.2015 -0.132743 10.7984 0.835725 10.219L16.7747 0.683551C17.9087 0.00521125 19.2998 1.02602 18.993 2.31118L18.4545 4.56607C17.9955 6.48816 17.7301 8.44441 17.6581 10.406C17.7329 10.3371 17.8165 10.2743 17.909 10.219Z" fill="black" fill-opacity="0.3"/>
<path fill-rule="evenodd" clip-rule="evenodd" d="M17.909 10.219L33.8481 0.683551C34.9819 0.00521125 36.3731 1.02602 36.0662 2.31118L35.5278 4.56607C34.4392 9.12455 34.4392 13.8752 35.5278 18.4338L36.0662 20.6887C36.3731 21.9739 34.9819 22.9946 33.8481 22.3163L17.909 12.7808C17.8165 12.7255 17.7329 12.6628 17.6581 12.5938C17.7301 14.5554 17.9955 16.5117 18.4545 18.4338L18.993 20.6887C19.2998 21.9739 17.9087 22.9946 16.7747 22.3163L0.835728 12.7808C-0.132741 12.2015 -0.132743 10.7984 0.835725 10.219L16.7747 0.683551C17.9087 0.00521125 19.2998 1.02602 18.993 2.31118L18.4545 4.56607C17.9955 6.48816 17.7301 8.44441 17.6581 10.406C17.7329 10.3371 17.8165 10.2743 17.909 10.219Z" fill="url(#paint0_linear_364_4180)"/>
<path style="mix-blend-mode:overlay" fill-rule="evenodd" clip-rule="evenodd" d="M17.909 10.219L33.8481 0.683551C34.9819 0.00521125 36.3731 1.02602 36.0662 2.31118L35.5278 4.56607C34.4392 9.12455 34.4392 13.8752 35.5278 18.4338L36.0662 20.6887C36.3731 21.9739 34.9819 22.9946 33.8481 22.3163L17.909 12.7808C17.8165 12.7255 17.7329 12.6628 17.6581 12.5938C17.7301 14.5554 17.9955 16.5117 18.4545 18.4338L18.993 20.6887C19.2998 21.9739 17.9087 22.9946 16.7747 22.3163L0.835728 12.7808C-0.132741 12.2015 -0.132743 10.7984 0.835725 10.219L16.7747 0.683551C17.9087 0.00521125 19.2998 1.02602 18.993 2.31118L18.4545 4.56607C17.9955 6.48816 17.7301 8.44441 17.6581 10.406C17.7329 10.3371 17.8165 10.2743 17.909 10.219Z" fill="url(#paint1_linear_364_4180)" fill-opacity="0.3"/>
<path fill-rule="evenodd" clip-rule="evenodd" d="M17.909 10.219L33.8481 0.683551C34.9819 0.00521125 36.3731 1.02602 36.0662 2.31118L35.5278 4.56607C34.4392 9.12455 34.4392 13.8752 35.5278 18.4338L36.0662 20.6887C36.3731 21.9739 34.9819 22.9946 33.8481 22.3163L17.909 12.7808C17.8165 12.7255 17.7329 12.6628 17.6581 12.5938C17.7301 14.5554 17.9955 16.5117 18.4545 18.4338L18.993 20.6887C19.2998 21.9739 17.9087 22.9946 16.7747 22.3163L0.835728 12.7808C-0.132741 12.2015 -0.132743 10.7984 0.835725 10.219L16.7747 0.683551C17.9087 0.00521125 19.2998 1.02602 18.993 2.31118L18.4545 4.56607C17.9955 6.48816 17.7301 8.44441 17.6581 10.406C17.7329 10.3371 17.8165 10.2743 17.909 10.219Z" fill="url(#paint2_linear_364_4180)" fill-opacity="0.2"/>
<path style="mix-blend-mode:overlay" fill-rule="evenodd" clip-rule="evenodd" d="M17.909 10.219L33.8481 0.683551C34.9819 0.00521125 36.3731 1.02602 36.0662 2.31118L35.5278 4.56607C34.4392 9.12455 34.4392 13.8752 35.5278 18.4338L36.0662 20.6887C36.3731 21.9739 34.9819 22.9946 33.8481 22.3163L17.909 12.7808C17.8165 12.7255 17.7329 12.6628 17.6581 12.5938C17.7301 14.5554 17.9955 16.5117 18.4545 18.4338L18.993 20.6887C19.2998 21.9739 17.9087 22.9946 16.7747 22.3163L0.835728 12.7808C-0.132741 12.2015 -0.132743 10.7984 0.835725 10.219L16.7747 0.683551C17.9087 0.00521125 19.2998 1.02602 18.993 2.31118L18.4545 4.56607C17.9955 6.48816 17.7301 8.44441 17.6581 10.406C17.7329 10.3371 17.8165 10.2743 17.909 10.219Z" fill="url(#paint3_linear_364_4180)" fill-opacity="0.4"/>
<path d="M33.8488 0.326686L33.7922 0.232216L33.8488 0.326686ZM17.9097 9.86211L17.8532 9.76763L17.9097 9.86211ZM36.0669 1.95431L35.9599 1.92875L36.0669 1.95431ZM35.5285 4.20921L35.6355 4.23477L35.5285 4.20921ZM35.5285 18.0769L35.6355 18.0514L35.5285 18.0769ZM36.0669 20.3318L35.9599 20.3574L36.0669 20.3318ZM33.8488 21.9594L33.7922 22.0539L33.8488 21.9594ZM17.9097 12.4239L17.8532 12.5185L17.9097 12.4239ZM17.6588 12.2369L17.7334 12.156L17.5391 11.977L17.5488 12.241L17.6588 12.2369ZM18.4552 18.0769L18.3481 18.1024L18.4552 18.0769ZM18.9937 20.3318L19.1007 20.3062L18.9937 20.3318ZM16.7754 21.9594L16.8319 21.8649L16.7754 21.9594ZM0.836438 12.4239L0.892953 12.3295L0.836438 12.4239ZM0.836435 9.86211L0.892951 9.95657L0.836435 9.86211ZM16.7754 0.326686L16.8319 0.421156L16.7754 0.326686ZM18.9937 1.95431L19.1007 1.97989L18.9937 1.95431ZM18.4552 4.20921L18.3481 4.18363L18.4552 4.20921ZM17.6588 10.0492L17.5488 10.0451L17.5391 10.3091L17.7334 10.1301L17.6588 10.0492ZM33.7922 0.232216L17.8532 9.76763L17.9663 9.95657L33.9053 0.421156L33.7922 0.232216ZM36.174 1.97989C36.5036 0.599938 35.0098 -0.496152 33.7922 0.232216L33.9053 0.421156C34.9556 -0.207157 36.2441 0.738365 35.9599 1.92875L36.174 1.97989ZM35.6355 4.23477L36.174 1.97989L35.9599 1.92875L35.4214 4.18363L35.6355 4.23477ZM35.6355 18.0514C34.551 13.5097 34.551 8.77644 35.6355 4.23477L35.4214 4.18363C34.3288 8.75893 34.3288 13.5272 35.4214 18.1024L35.6355 18.0514ZM36.174 20.3062L35.6355 18.0514L35.4214 18.1024L35.9599 20.3574L36.174 20.3062ZM33.7922 22.0539C35.0098 22.7823 36.5036 21.6862 36.174 20.3062L35.9599 20.3574C36.2441 21.5477 34.9556 22.4932 33.9053 21.8649L33.7922 22.0539ZM17.8532 12.5185L33.7922 22.0539L33.9053 21.8649L17.9663 12.3295L17.8532 12.5185ZM17.5842 12.3179C17.6646 12.3919 17.7543 12.4592 17.8532 12.5185L17.9663 12.3295C17.8803 12.2781 17.8026 12.2197 17.7334 12.156L17.5842 12.3179ZM18.5623 18.0514C18.105 16.1363 17.8404 14.1873 17.7688 12.2329L17.5488 12.241C17.621 14.2098 17.8874 16.1733 18.3481 18.1024L18.5623 18.0514ZM19.1007 20.3062L18.5623 18.0514L18.3481 18.1024L18.8865 20.3574L19.1007 20.3062ZM16.719 22.0539C17.9364 22.7823 19.4302 21.6862 19.1007 20.3062L18.8865 20.3574C19.1709 21.5477 17.8822 22.4932 16.8319 21.8649L16.719 22.0539ZM0.779921 12.5185L16.719 22.0539L16.8319 21.8649L0.892953 12.3295L0.779921 12.5185ZM0.77992 9.76763C-0.259974 10.3897 -0.259972 11.8964 0.779921 12.5185L0.892953 12.3295C-0.00409104 11.7929 -0.00409223 10.4932 0.892951 9.95657L0.77992 9.76763ZM16.719 0.232216L0.77992 9.76763L0.892951 9.95657L16.8319 0.421156L16.719 0.232216ZM19.1007 1.97989C19.4302 0.599938 17.9364 -0.496152 16.719 0.232216L16.8319 0.421156C17.8822 -0.207157 19.1709 0.738365 18.8865 1.92875L19.1007 1.97989ZM18.5623 4.23477L19.1007 1.97989L18.8865 1.92875L18.3481 4.18363L18.5623 4.23477ZM17.7688 10.0532C17.8404 8.09882 18.105 6.14977 18.5623 4.23477L18.3481 4.18363C17.8874 6.1128 17.621 8.07628 17.5488 10.0451L17.7688 10.0532ZM17.8532 9.76763C17.7543 9.82681 17.6646 9.89416 17.5842 9.96819L17.7334 10.1301C17.8026 10.0664 17.8803 10.008 17.9663 9.95657L17.8532 9.76763Z" fill="black" fill-opacity="0.12"/>
<defs>
<linearGradient id="paint0_linear_364_4180" x1="22.7657" y1="-8.68172" x2="28.5931" y2="28.4824" gradientUnits="userSpaceOnUse">
<stop stop-color="#A73EFF"/>
<stop offset="0.0666667" stop-color="#A63EFF"/>
<stop offset="0.133333" stop-color="#A33CFD"/>
<stop offset="0.2" stop-color="#9E3AFB"/>
<stop offset="0.266667" stop-color="#9636F8"/>
<stop offset="0.333333" stop-color="#8D32F4"/>
<stop offset="0.4" stop-color="#812CF0"/>
<stop offset="0.466667" stop-color="#7426EB"/>
<stop offset="0.533333" stop-color="#6720E6"/>
<stop offset="0.6" stop-color="#5B1AE0"/>
<stop offset="0.666667" stop-color="#4F15DC"/>
<stop offset="0.733333" stop-color="#4611D8"/>
<stop offset="0.8" stop-color="#3E0DD5"/>
<stop offset="0.866667" stop-color="#390BD3"/>
<stop offset="0.933333" stop-color="#3609D2"/>
<stop offset="1" stop-color="#3509D1"/>
</linearGradient>
<linearGradient id="paint1_linear_364_4180" x1="15.9262" y1="0.467285" x2="15.9262" y2="24.1471" gradientUnits="userSpaceOnUse">
<stop stop-color="white"/>
<stop offset="0.0666667" stop-color="#FDFDFD"/>
<stop offset="0.133333" stop-color="#F6F6F6"/>
<stop offset="0.2" stop-color="#EAEAEA"/>
<stop offset="0.266667" stop-color="#D9D9D9"/>
<stop offset="0.333333" stop-color="#C4C4C4"/>
<stop offset="0.4" stop-color="#AAAAAA"/>
<stop offset="0.466667" stop-color="#8E8E8E"/>
<stop offset="0.533333" stop-color="#717171"/>
<stop offset="0.6" stop-color="#555555"/>
<stop offset="0.666667" stop-color="#3B3B3B"/>
<stop offset="0.733333" stop-color="#262626"/>
<stop offset="0.8" stop-color="#151515"/>
<stop offset="0.866667" stop-color="#090909"/>
<stop offset="0.933333" stop-color="#020202"/>
<stop offset="1"/>
</linearGradient>
<linearGradient id="paint2_linear_364_4180" x1="18.1094" y1="0.467285" x2="18.1094" y2="22.5325" gradientUnits="userSpaceOnUse">
<stop stop-color="white"/>
<stop offset="0.0666667" stop-color="#FDFDFD" stop-opacity="0.991353"/>
<stop offset="0.133333" stop-color="#F6F6F6" stop-opacity="0.96449"/>
<stop offset="0.2" stop-color="#EAEAEA" stop-opacity="0.91834"/>
<stop offset="0.266667" stop-color="#D9D9D9" stop-opacity="0.852589"/>
<stop offset="0.333333" stop-color="#C4C4C4" stop-opacity="0.768225"/>
<stop offset="0.4" stop-color="#AAAAAA" stop-opacity="0.668116"/>
<stop offset="0.466667" stop-color="#8E8E8E" stop-opacity="0.557309"/>
<stop offset="0.533333" stop-color="#717171" stop-opacity="0.442691"/>
<stop offset="0.6" stop-color="#555555" stop-opacity="0.331884"/>
<stop offset="0.666667" stop-color="#3B3B3B" stop-opacity="0.231775"/>
<stop offset="0.733333" stop-color="#262626" stop-opacity="0.147411"/>
<stop offset="0.8" stop-color="#151515" stop-opacity="0.0816599"/>
<stop offset="0.866667" stop-color="#090909" stop-opacity="0.03551"/>
<stop offset="0.933333" stop-color="#020202" stop-opacity="0.01"/>
<stop offset="1" stop-opacity="0"/>
</linearGradient>
<linearGradient id="paint3_linear_364_4180" x1="18.1094" y1="0.467285" x2="18.1094" y2="22.5325" gradientUnits="userSpaceOnUse">
<stop offset="0.479167" stop-color="white" stop-opacity="0.17"/>
<stop offset="1" stop-color="white"/>
</linearGradient>
</defs>
</svg>

<svg xmlns="http://www.w3.org/2000/svg" fill="none" viewBox="0 0 37 23"><path fill="#0A0909" fill-rule="evenodd" d="M17.909 10.219 33.849.684c1.133-.679 2.524.342 2.217 1.627l-.538 2.255a29.852 29.852 0 0 0 0 13.868l.538 2.255c.307 1.285-1.084 2.306-2.218 1.627L17.91 12.781a1.517 1.517 0 0 1-.25-.187c.071 1.961.337 3.918.796 5.84l.538 2.255c.307 1.285-1.084 2.306-2.218 1.627L.835 12.781a1.493 1.493 0 0 1 0-2.562L16.776.684c1.134-.679 2.525.342 2.218 1.627l-.538 2.255a29.857 29.857 0 0 0-.797 5.84c.075-.069.159-.132.251-.187Z" clip-rule="evenodd" style="mix-blend-mode:overlay"/><path fill="#000" fill-opacity=".3" fill-rule="evenodd" d="M17.909 10.219 33.849.684c1.133-.679 2.524.342 2.217 1.627l-.538 2.255a29.852 29.852 0 0 0 0 13.868l.538 2.255c.307 1.285-1.084 2.306-2.218 1.627L17.91 12.781a1.517 1.517 0 0 1-.25-.187c.071 1.961.337 3.918.796 5.84l.538 2.255c.307 1.285-1.084 2.306-2.218 1.627L.835 12.781a1.493 1.493 0 0 1 0-2.562L16.776.684c1.134-.679 2.525.342 2.218 1.627l-.538 2.255a29.857 29.857 0 0 0-.797 5.84c.075-.069.159-.132.251-.187Z" clip-rule="evenodd"/><path fill="url(#a)" fill-rule="evenodd" d="M17.909 10.219 33.849.684c1.133-.679 2.524.342 2.217 1.627l-.538 2.255a29.852 29.852 0 0 0 0 13.868l.538 2.255c.307 1.285-1.084 2.306-2.218 1.627L17.91 12.781a1.517 1.517 0 0 1-.25-.187c.071 1.961.337 3.918.796 5.84l.538 2.255c.307 1.285-1.084 2.306-2.218 1.627L.835 12.781a1.493 1.493 0 0 1 0-2.562L16.776.684c1.134-.679 2.525.342 2.218 1.627l-.538 2.255a29.857 29.857 0 0 0-.797 5.84c.075-.069.159-.132.251-.187Z" clip-rule="evenodd"/><path fill="url(#b)" fill-opacity=".3" fill-rule="evenodd" d="M17.909 10.219 33.849.684c1.133-.679 2.524.342 2.217 1.627l-.538 2.255a29.852 29.852 0 0 0 0 13.868l.538 2.255c.307 1.285-1.084 2.306-2.218 1.627L17.91 12.781a1.517 1.517 0 0 1-.25-.187c.071 1.961.337 3.918.796 5.84l.538 2.255c.307 1.285-1.084 2.306-2.218 1.627L.835 12.781a1.493 1.493 0 0 1 0-2.562L16.776.684c1.134-.679 2.525.342 2.218 1.627l-.538 2.255a29.857 29.857 0 0 0-.797 5.84c.075-.069.159-.132.251-.187Z" clip-rule="evenodd" style="mix-blend-mode:overlay"/><path fill="url(#c)" fill-opacity=".2" fill-rule="evenodd" d="M17.909 10.219 33.849.684c1.133-.679 2.524.342 2.217 1.627l-.538 2.255a29.852 29.852 0 0 0 0 13.868l.538 2.255c.307 1.285-1.084 2.306-2.218 1.627L17.91 12.781a1.517 1.517 0 0 1-.25-.187c.071 1.961.337 3.918.796 5.84l.538 2.255c.307 1.285-1.084 2.306-2.218 1.627L.835 12.781a1.493 1.493 0 0 1 0-2.562L16.776.684c1.134-.679 2.525.342 2.218 1.627l-.538 2.255a29.857 29.857 0 0 0-.797 5.84c.075-.069.159-.132.251-.187Z" clip-rule="evenodd"/><path fill="url(#d)" fill-opacity=".4" fill-rule="evenodd" d="M17.909 10.219 33.849.684c1.133-.679 2.524.342 2.217 1.627l-.538 2.255a29.852 29.852 0 0 0 0 13.868l.538 2.255c.307 1.285-1.084 2.306-2.218 1.627L17.91 12.781a1.517 1.517 0 0 1-.25-.187c.071 1.961.337 3.918.796 5.84l.538 2.255c.307 1.285-1.084 2.306-2.218 1.627L.835 12.781a1.493 1.493 0 0 1 0-2.562L16.776.684c1.134-.679 2.525.342 2.218 1.627l-.538 2.255a29.857 29.857 0 0 0-.797 5.84c.075-.069.159-.132.251-.187Z" clip-rule="evenodd" style="mix-blend-mode:overlay"/><path fill="#000" fill-opacity=".12" d="m33.849.327-.057-.095.057.095Zm-15.94 9.535-.056-.094.057.094Zm18.158-7.908-.107-.025.107.025Zm-.538 2.255.106.026-.106-.026Zm0 13.868.106-.026-.106.026Zm.538 2.255-.107.025.107-.025Zm-2.218 1.627-.057.095.057-.095Zm-15.94-9.535-.056.095.057-.095Zm-.25-.187.074-.081-.194-.179.01.264.11-.004Zm.796 5.84-.107.025.107-.025Zm.539 2.255.107-.026-.107.026Zm-2.219 1.627.057-.094-.057.094ZM.836 12.424l.057-.095-.057.095Zm0-2.562.057.095-.057-.095ZM16.776.327l.056.094-.057-.094Zm2.218 1.627.107.026-.107-.026Zm-.539 2.255-.107-.025.107.025Zm-.796 5.84-.11-.004-.01.264.194-.179-.074-.08ZM33.792.232 17.853 9.768l.113.189L33.906.42l-.114-.189Zm2.382 1.748C36.504.6 35.01-.496 33.792.232l.113.19c1.05-.63 2.34.316 2.055 1.507l.214.05Zm-.538 2.255.538-2.255-.214-.051-.539 2.255.215.05Zm0 13.816a29.744 29.744 0 0 1 0-13.816l-.215-.051a29.962 29.962 0 0 0 0 13.918l.215-.05Zm.538 2.255-.538-2.255-.215.051.539 2.255.214-.05Zm-2.382 1.748c1.218.728 2.712-.368 2.382-1.748l-.214.051c.284 1.19-1.004 2.136-2.055 1.508l-.113.189Zm-15.939-9.535 15.94 9.535.112-.19-15.939-9.535-.113.19Zm-.269-.201c.08.074.17.141.27.2l.112-.189a1.416 1.416 0 0 1-.233-.173l-.149.162Zm.978 5.733a29.739 29.739 0 0 1-.793-5.818l-.22.008a29.96 29.96 0 0 0 .8 5.861l.213-.05Zm.539 2.255-.539-2.255-.214.051.539 2.255.214-.05Zm-2.382 1.748c1.217.728 2.711-.368 2.382-1.748l-.214.051c.284 1.19-1.005 2.136-2.055 1.508l-.113.189ZM.779 12.519l15.94 9.535.113-.19L.893 12.33l-.113.19Zm0-2.751a1.603 1.603 0 0 0 0 2.75l.114-.189a1.383 1.383 0 0 1 0-2.372l-.113-.19ZM16.72.232.779 9.768l.114.189L16.832.42l-.113-.189Zm2.382 1.748C19.43.6 17.936-.496 16.719.232l.113.19c1.05-.63 2.339.316 2.055 1.507l.214.05Zm-.539 2.255.539-2.255-.214-.051-.539 2.255.214.05Zm-.793 5.818c.071-1.954.336-3.903.793-5.818l-.214-.051a29.961 29.961 0 0 0-.8 5.861l.22.008Zm.084-.285c-.099.059-.188.126-.269.2l.15.162c.069-.064.146-.122.232-.173l-.113-.19Z"/><defs><linearGradient id="a" x1="22.766" x2="28.593" y1="-8.682" y2="28.482" gradientUnits="userSpaceOnUse"><stop stop-color="#A73EFF"/><stop offset=".067" stop-color="#A63EFF"/><stop offset=".133" stop-color="#A33CFD"/><stop offset=".2" stop-color="#9E3AFB"/><stop offset=".267" stop-color="#9636F8"/><stop offset=".333" stop-color="#8D32F4"/><stop offset=".4" stop-color="#812CF0"/><stop offset=".467" stop-color="#7426EB"/><stop offset=".533" stop-color="#6720E6"/><stop offset=".6" stop-color="#5B1AE0"/><stop offset=".667" stop-color="#4F15DC"/><stop offset=".733" stop-color="#4611D8"/><stop offset=".8" stop-color="#3E0DD5"/><stop offset=".867" stop-color="#390BD3"/><stop offset=".933" stop-color="#3609D2"/><stop offset="1" stop-color="#3509D1"/></linearGradient><linearGradient id="b" x1="15.926" x2="15.926" y1=".467" y2="24.147" gradientUnits="userSpaceOnUse"><stop stop-color="#fff"/><stop offset=".067" stop-color="#FDFDFD"/><stop offset=".133" stop-color="#F6F6F6"/><stop offset=".2" stop-color="#EAEAEA"/><stop offset=".267" stop-color="#D9D9D9"/><stop offset=".333" stop-color="#C4C4C4"/><stop offset=".4" stop-color="#AAA"/><stop offset=".467" stop-color="#8E8E8E"/><stop offset=".533" stop-color="#717171"/><stop offset=".6" stop-color="#555"/><stop offset=".667" stop-color="#3B3B3B"/><stop offset=".733" stop-color="#262626"/><stop offset=".8" stop-color="#151515"/><stop offset=".867" stop-color="#090909"/><stop offset=".933" stop-color="#020202"/><stop offset="1"/></linearGradient><linearGradient id="c" x1="18.109" x2="18.109" y1=".467" y2="22.532" gradientUnits="userSpaceOnUse"><stop stop-color="#fff"/><stop offset=".067" stop-color="#FDFDFD" stop-opacity=".991"/><stop offset=".133" stop-color="#F6F6F6" stop-opacity=".964"/><stop offset=".2" stop-color="#EAEAEA" stop-opacity=".918"/><stop offset=".267" stop-color="#D9D9D9" stop-opacity=".853"/><stop offset=".333" stop-color="#C4C4C4" stop-opacity=".768"/><stop offset=".4" stop-color="#AAA" stop-opacity=".668"/><stop offset=".467" stop-color="#8E8E8E" stop-opacity=".557"/><stop offset=".533" stop-color="#717171" stop-opacity=".443"/><stop offset=".6" stop-color="#555" stop-opacity=".332"/><stop offset=".667" stop-color="#3B3B3B" stop-opacity=".232"/><stop offset=".733" stop-color="#262626" stop-opacity=".147"/><stop offset=".8" stop-color="#151515" stop-opacity=".082"/><stop offset=".867" stop-color="#090909" stop-opacity=".036"/><stop offset=".933" stop-color="#020202" stop-opacity=".01"/><stop offset="1" stop-opacity="0"/></linearGradient><linearGradient id="d" x1="18.109" x2="18.109" y1=".467" y2="22.532" gradientUnits="userSpaceOnUse"><stop offset=".479" stop-color="#fff" stop-opacity=".17"/><stop offset="1" stop-color="#fff"/></linearGradient></defs></svg>
